images/film-strip.svg

<svg enable-background="new 0 0 512 512" height="512" viewBox="0 0 512 512" width="512" xmlns="http://www.w3.org/2000/svg"><path d="m416.323 0c-4.142 0-7.5 3.358-7.5 7.5v.516h-25.081v-.516c0-4.142-3.358-7.5-7.5-7.5s-7.5 3.358-7.5 7.5v40.597h-8.535c-4.142 0-7.5 3.358-7.5 7.5s3.358 7.5 7.5 7.5h8.535v185.403h-225.485v-185.403h184.884c4.142 0 7.5-3.358 7.5-7.5s-3.358-7.5-7.5-7.5h-184.884v-40.597c0-4.142-3.358-7.5-7.5-7.5s-7.5 3.358-7.5 7.5v.516h-25.08v-.516c0-4.142-3.358-7.5-7.5-7.5s-7.5 3.358-7.5 7.5v497c0 4.142 3.358 7.5 7.5 7.5s7.5-3.358 7.5-7.5v-.516h25.08v.516c0 4.142 3.358 7.5 7.5 7.5s7.5-3.358 7.5-7.5v-40.597h8.535c4.142 0 7.5-3.358 7.5-7.5s-3.358-7.5-7.5-7.5h-8.535v-185.403h225.484v185.403h-184.883c-4.142 0-7.5 3.358-7.5 7.5s3.358 7.5 7.5 7.5h184.884v40.597c0 4.142 3.358 7.5 7.5 7.5s7.5-3.358 7.5-7.5v-.516h25.081v.516c0 4.142 3.358 7.5 7.5 7.5s7.5-3.358 7.5-7.5v-497c0-4.142-3.358-7.5-7.5-7.5zm-313.147 143.258h25.08v25.081h-25.08zm0 80.161h25.08v25.081h-25.08zm0 120.242h25.08v25.081h-25.08zm0 40.081h25.08v25.081h-25.08zm0 65.161v-25.081h25.08v25.081zm25.081 40.081h-25.08v-25.081h25.08zm0-160.323h-25.08v-25.081h25.08zm0-40.08h-25.08v-25.081h25.08zm0-80.161h-25.08v-25.081h25.08zm0-80.162h-25.08v-25.081h25.08zm0-40.081h-25.08v-25.08h25.08zm0-40.08h-25.08v-25.081h25.08zm255.484-25.081h25.081v25.081h-25.081zm0 160.323h25.081v25.081h-25.081zm0 40.08h25.081v25.081h-25.081zm25.081 265.565h-25.081v-25.081h25.081zm0-40.081h-25.081v-25.081h25.081zm0-40.08h-25.081v-25.081h25.081zm.001-40.081h-25.081v-25.081h25.081zm0-40.081h-25.081v-25.081h25.081zm0-40.08h-25.081v-25.081h25.081zm0-120.242h-25.081v-25.081h25.081zm0-40.081h-25.081v-25.081h25.081zm0-40.08h-25.081v-25.081h25.081z" fill="#fff"/></svg>

<?xml version="1.0" encoding="iso-8859-1"?>
<!-- Generator: Adobe Illustrator 19.0.0, SVG Export Plug-In . SVG Version: 6.00 Build 0)  -->
<svg xmlns="http://www.w3.org/2000/svg" xmlns:xlink="http://www.w3.org/1999/xlink" version="1.1" id="Capa_1" x="0px" y="0px" viewBox="0 0 512 512" style="enable-background:new 0 0 512 512;" xml:space="preserve" width="512px" height="512px">
<g>
	<g>
		<path d="M416.323,0c-4.142,0-7.5,3.358-7.5,7.5v0.516h-25.081V7.5c0-4.142-3.358-7.5-7.5-7.5c-4.142,0-7.5,3.358-7.5,7.5v40.597    h-8.535c-4.142,0-7.5,3.358-7.5,7.5c0,4.142,3.358,7.5,7.5,7.5h8.535V248.5H143.257V63.097h184.884c4.142,0,7.5-3.358,7.5-7.5    c0-4.142-3.358-7.5-7.5-7.5H143.257V7.5c0-4.142-3.358-7.5-7.5-7.5c-4.142,0-7.5,3.358-7.5,7.5v0.516h-25.08V7.5    c0-4.142-3.358-7.5-7.5-7.5c-4.142,0-7.5,3.358-7.5,7.5v497c0,4.142,3.358,7.5,7.5,7.5c4.142,0,7.5-3.358,7.5-7.5v-0.516h25.08    v0.516c0,4.142,3.358,7.5,7.5,7.5c4.142,0,7.5-3.358,7.5-7.5v-40.597h8.535c4.142,0,7.5-3.358,7.5-7.5c0-4.142-3.358-7.5-7.5-7.5    h-8.535V263.5h225.484v185.403H183.858c-4.142,0-7.5,3.358-7.5,7.5c0,4.142,3.358,7.5,7.5,7.5h184.884V504.5    c0,4.142,3.358,7.5,7.5,7.5c4.142,0,7.5-3.358,7.5-7.5v-0.516h25.081v0.516c0,4.142,3.358,7.5,7.5,7.5c4.142,0,7.5-3.358,7.5-7.5    V7.5C423.823,3.358,420.465,0,416.323,0z M103.176,143.258h25.08v25.081h-25.08V143.258z M103.176,223.419h25.08V248.5h-25.08    V223.419z M103.176,343.661h25.08v25.081h-25.08V343.661z M103.176,383.742h25.08v25.081h-25.08V383.742z M103.176,448.903    v-25.081h25.08v25.081H103.176z M128.257,488.984h-25.08v-25.081h25.08V488.984z M128.257,328.661h-25.08V303.58h25.08V328.661z     M128.257,288.581h-25.08V263.5h25.08V288.581z M128.257,208.42h-25.08v-25.081h25.08V208.42z M128.257,128.258h-25.08v-25.081    h25.08V128.258z M128.257,88.177h-25.08v-25.08h25.08V88.177z M128.257,48.097h-25.08V23.016h25.08V48.097z M383.741,23.016    h25.081v25.081h-25.081V23.016z M383.741,183.339h25.081v25.081h-25.081V183.339z M383.741,223.419h25.081V248.5h-25.081V223.419z     M408.822,488.984h-25.081v-25.081h25.081V488.984z M408.822,448.903h-25.081v-25.081h25.081V448.903z M408.822,408.823h-25.081    v-25.081h25.081V408.823z M408.823,368.742h-25.081v-25.081h25.081V368.742z M408.823,328.661h-25.081V303.58h25.081V328.661z     M408.823,288.581h-25.081V263.5h25.081V288.581z M408.823,168.339h-25.081v-25.081h25.081V168.339z M408.823,128.258h-25.081    v-25.081h25.081V128.258z M408.823,88.178h-25.081V63.097h25.081V88.178z" fill="#FFFFFF"/>
	</g>
</g>
<g>
</g>
<g>
</g>
<g>
</g>
<g>
</g>
<g>
</g>
<g>
</g>
<g>
</g>
<g>
</g>
<g>
</g>
<g>
</g>
<g>
</g>
<g>
</g>
<g>
</g>
<g>
</g>
<g>
</g>
</svg>
